X:125
T: HOPP HOPP HOPP PFERDCHEN
N: F0245
O: Europa, Mitteleuropa, Deutschland
R: Jugend - Lied, Kinder, Spiel
M: 2/4
L: 1/8
K: G
 | G2B2 | d2z2 |
dcBA | G2z2 |
AAFD | ddBG |
AAFD | ddBG |
GABc | d2z2 |
dcBA | G2z2

@@@ Tune index: 5556
